src/img/advisory/trading.svg

<svg width="39" height="39" viewBox="0 0 39 39" fill="none" xmlns="http://www.w3.org/2000/svg">
<path d="M38.6988 34.6593L38.1425 34.1028C37.9193 33.8797 37.5576 33.8797 37.3346 34.1028C37.1114 34.3259 37.1114 34.6876 37.3345 34.9106L37.81 35.3863L35.3864 37.81L31.266 33.6896L33.6897 31.2659L35.6119 33.1882C35.8351 33.4112 36.1968 33.4112 36.4199 33.1882C36.643 32.965 36.643 32.6033 36.4199 32.3802L34.0947 30.0551C34.0943 30.0547 34.094 30.0543 34.0937 30.0539L32.4779 28.4381C32.4774 28.4376 32.4769 28.4373 32.4765 28.4369L31.0505 27.0109C30.8562 26.8165 30.598 26.7095 30.3233 26.7095C30.0485 26.7095 29.7903 26.8165 29.5961 27.0107L29.5153 27.0916L27.4711 25.0468C28.9322 23.2213 29.9875 21.0579 30.4997 18.6943H34.525C34.8406 18.6943 35.0963 18.4385 35.0963 18.123C35.0963 17.8074 34.8406 17.5517 34.525 17.5517H30.7022C30.7526 17.1883 30.7902 16.821 30.8146 16.4502H37.248C37.5636 16.4502 37.8193 16.1944 37.8193 15.8789C37.8193 15.5633 37.5636 15.3076 37.248 15.3076H30.8484C30.8456 14.9379 30.8303 14.5706 30.8023 14.206H34.5251C34.8406 14.206 35.0963 13.9503 35.0963 13.6347C35.0963 13.3191 34.8406 13.0634 34.5251 13.0634H30.6718C30.2727 10.4371 29.2053 7.98038 27.5256 5.85838C27.3298 5.61105 26.9706 5.56931 26.7231 5.76499C26.4757 5.96083 26.4339 6.32013 26.6297 6.56754C28.6429 9.11084 29.707 12.1736 29.707 15.4248C29.707 23.3001 23.3001 29.707 15.4248 29.707C7.54955 29.707 1.14258 23.3001 1.14258 15.4248C1.14258 7.54955 7.54955 1.14258 15.4248 1.14258C18.9849 1.14258 22.3954 2.4602 25.0277 4.85268C25.2611 5.06505 25.6226 5.04768 25.8347 4.81421C26.0469 4.58075 26.0297 4.21939 25.7961 4.00717C22.9531 1.42312 19.2698 0 15.4248 0C6.91953 0 0 6.91953 0 15.4248C0 22.934 5.39403 29.2059 12.5107 30.5723V34.4265C12.5107 34.7421 12.7664 34.9978 13.082 34.9978C13.3976 34.9978 13.6533 34.7421 13.6533 34.4265V30.7473C14.0168 30.7891 14.3841 30.8183 14.7549 30.8342V37.1131C14.7549 37.4286 15.0106 37.6844 15.3262 37.6844C15.6417 37.6844 15.8975 37.4286 15.8975 37.1131V30.8417C16.268 30.8305 16.6354 30.8069 16.9991 30.7699V34.4265C16.9991 34.7421 17.2548 34.9978 17.5703 34.9978C17.8859 34.9978 18.1416 34.7421 18.1416 34.4265V30.61C20.721 30.1497 23.0799 29.0456 25.0469 27.4711L27.0917 29.5154L27.0109 29.5961C26.8166 29.7904 26.7096 30.0486 26.7096 30.3233C26.7096 30.5981 26.8166 30.8563 27.0108 31.0505L28.4373 32.4769C28.4376 32.4772 28.4379 32.4776 28.4382 32.4779L30.054 34.0937C30.0543 34.094 30.0548 34.0943 30.0551 34.0947L34.6591 38.6987C34.8534 38.8931 35.1116 39 35.3863 39C35.6611 39 35.9192 38.8931 36.1135 38.6988L38.6988 36.1135C38.8931 35.9192 39 35.6611 39 35.3863C39 35.1116 38.8931 34.8534 38.6988 34.6593ZM26.7227 25.9143L28.7073 27.8993L27.8994 28.7072L25.9144 26.7226C26.1936 26.4633 26.4633 26.1936 26.7227 25.9143ZM30.458 32.8817L29.6501 32.0738L32.0738 29.6501L32.8816 30.4581L30.458 32.8817ZM30.3233 27.8995L31.2659 28.8421L28.8422 31.2658L27.8996 30.3233L30.3233 27.8995Z" fill="#19338B"/>
<path d="M7.46935 25.8826C9.75748 27.6025 12.5062 28.5299 15.425 28.5645C22.6703 28.5645 28.5647 22.67 28.5647 15.4248C28.5647 8.17956 22.6703 2.28516 15.425 2.28516C11.9285 2.28516 8.63981 3.65374 6.16491 6.13877C3.70044 8.61321 2.32272 11.9089 2.2854 15.4187C2.25112 18.6498 3.42516 21.7555 5.59118 24.1636C5.80218 24.3982 6.16338 24.4174 6.39799 24.2064C6.6326 23.9954 6.65172 23.6341 6.44073 23.3995C4.46666 21.2049 3.39667 18.3749 3.42798 15.4309C3.46202 12.2208 4.72153 9.20712 6.97446 6.94512C9.23342 4.67688 12.2345 3.42773 15.425 3.42773C22.0403 3.42773 27.4221 8.80958 27.4221 15.4248C27.4221 22.04 22.0403 27.4219 15.4318 27.422C12.7644 27.3903 10.2484 26.5421 8.15581 24.9693C7.90376 24.7795 7.54545 24.8305 7.35593 25.0827C7.16626 25.3349 7.21707 25.6931 7.46935 25.8826Z" fill="#19338B"/>
<path d="M17.5957 5.21777H13.6347C13.1517 5.21777 12.7588 5.61074 12.7588 6.09375V8.1123H9.06442C8.58141 8.1123 8.18844 8.50528 8.18844 8.98828V15.1201H7.42383C7.10825 15.1201 6.85254 15.3758 6.85254 15.6914C6.85254 16.007 7.10825 16.2627 7.42383 16.2627H23.8066C24.1221 16.2627 24.3779 16.007 24.3779 15.6914C24.3779 15.3758 24.1221 15.1201 23.8066 15.1201H23.042V11.8828C23.042 11.3998 22.649 11.0068 22.166 11.0068H18.4716V6.09375C18.4716 5.61074 18.0787 5.21777 17.5957 5.21777ZM9.33102 9.25488H12.7588V15.1201H9.33102V9.25488ZM13.9013 6.36035H17.3291V15.1201H13.9013V6.36035ZM21.8994 12.1494V15.1201H18.4716V12.1494H21.8994Z" fill="#19338B"/>
<path d="M22.0138 21.1036H19.3243L18.1025 17.9804C18.0161 17.7597 17.8045 17.6169 17.5654 17.6172C17.3284 17.6193 17.1172 17.7676 17.0348 17.9899L15.3651 22.4923L14.1981 19.1847C14.1235 18.973 13.9317 18.8246 13.7079 18.8055C13.4844 18.7862 13.2701 18.9003 13.1605 19.0962L12.0399 21.1036H9.35742C9.04184 21.1036 8.78613 21.3593 8.78613 21.6749C8.78613 21.9904 9.04184 22.2462 9.35742 22.2462H12.3752C12.5822 22.2462 12.7731 22.1341 12.874 21.9533L13.5415 20.7578L14.8129 24.3615C14.893 24.5884 15.1065 24.7408 15.3471 24.7428H15.3518C15.5904 24.7428 15.8042 24.5942 15.8873 24.37L17.5847 19.793L18.4022 21.883C18.4879 22.102 18.699 22.2462 18.9342 22.2462H22.0138C22.3294 22.2462 22.5851 21.9905 22.5851 21.6749C22.5851 21.3594 22.3294 21.1036 22.0138 21.1036Z" fill="#19338B"/>
</svg>

<svg xmlns="http://www.w3.org/2000/svg" width="39" height="39" fill="none"><path fill="#19338B" d="M38.7 34.66l-.56-.56a.57.57 0 00-.8.81l.47.48-2.42 2.42-4.12-4.12 2.42-2.42 1.92 1.92a.57.57 0 00.81-.81l-2.33-2.32-1.61-1.62L31.05 27a1.02 1.02 0 00-1.45 0l-.08.08-2.05-2.04a15.38 15.38 0 003.03-6.36h4.02a.57.57 0 100-1.14H30.7c.05-.36.09-.73.11-1.1h6.44a.57.57 0 100-1.14h-6.4c0-.37-.02-.74-.05-1.1h3.73a.57.57 0 100-1.15h-3.86a15.24 15.24 0 00-3.14-7.2.57.57 0 00-.9.7 14.3 14.3 0 01-11.2 23.14A14.3 14.3 0 011.13 15.43 14.3 14.3 0 0125.03 4.85a.57.57 0 10.77-.84A15.44 15.44 0 000 15.43c0 7.5 5.4 13.78 12.51 15.14v3.86a.57.57 0 101.14 0v-3.68c.37.04.73.07 1.1.08v6.28a.57.57 0 101.15 0v-6.27c.37 0 .74-.03 1.1-.07v3.66a.57.57 0 101.14 0V30.6a15.36 15.36 0 006.9-3.14l2.05 2.05-.08.08a1.02 1.02 0 000 1.45l1.43 1.43 1.61 1.61 4.6 4.6a1.02 1.02 0 001.46 0l2.59-2.58a1.02 1.02 0 000-1.45zM26.72 25.9l1.99 1.99-.81.8-1.99-1.98c.28-.26.55-.53.81-.8zm3.74 6.97l-.81-.8 2.42-2.43.81.8-2.42 2.43zm-.14-4.98l.95.94-2.43 2.43-.94-.95 2.42-2.42z"/><path fill="#19338B" d="M7.47 25.88a13.15 13.15 0 0021.1-10.46c0-7.24-5.9-13.13-13.14-13.13-3.5 0-6.79 1.36-9.27 3.85a13.27 13.27 0 00-3.87 9.28 12.84 12.84 0 003.3 8.74.57.57 0 10.85-.76 11.7 11.7 0 01-3.01-7.97c.03-3.2 1.3-6.22 3.54-8.48a11.85 11.85 0 018.46-3.52 12 12 0 11-7.27 21.54.57.57 0 10-.7.91z"/><path fill="#19338B" d="M17.6 5.22h-3.97c-.48 0-.87.4-.87.87v2.02h-3.7c-.48 0-.87.4-.87.88v6.13h-.77a.57.57 0 100 1.14h16.39a.57.57 0 100-1.14h-.77v-3.24c0-.48-.4-.87-.87-.87h-3.7V6.09c0-.48-.4-.87-.87-.87zM9.33 9.25h3.43v5.87H9.33V9.25zm4.57-2.89h3.43v8.76H13.9V6.36zm8 5.79v2.97h-3.43v-2.97h3.43zM22.01 21.1h-2.69l-1.22-3.12a.57.57 0 00-1.07.01l-1.66 4.5-1.17-3.3a.57.57 0 00-1.04-.1l-1.12 2.01H9.36a.57.57 0 100 1.15h3.02c.2 0 .4-.12.5-.3l.66-1.2 1.27 3.61a.57.57 0 001.07 0l1.7-4.57.82 2.1c.09.21.3.36.53.36h3.08a.57.57 0 100-1.15z"/></svg>
